X: 3
T: Ged Foley’s Barndance
R: barndance
S: tradtunes John Adams 2019-10-10
M: 4/4
L: 1/8
K: Dmaj
"G"B2B2 "D"A2F2 | "A"(3EFE D>E "D"F>A A2 | "G"B2B2"D"A2F2 | "A"(3EFE D>E "D"F>DD2 :|
"D"d>f e>d "G"B2 A>B | "D"d>f e>d "A"c<e e2 | "D"d>f e>d "G"B2 A>F | "A7"(3EEE D>E "D"F>D D2 |
"D"d>f "G"e>d B2 A>B | "D"d>f e>d "A"c<e e2 | "D"f>d "A"e>c "G"d>B "A"A>F | "A7"(3EEE D>E "D"F<D D2 |]
